svg/furkot/freepik/hairdresser.svg

<svg viewBox="0 0 512 512" xmlns="http://www.w3.org/2000/svg"><path d="m502.921 112.276c9.045 0 16.406-7.691 16.406-16.76 0-9.045-7.361-16.759-16.406-16.759h-98.293v-21.299h98.293c9.045 0 16.406-7.328 16.406-16.373s-7.361-16.372-16.406-16.372h-153.646c-11.856 0-21.549 9.307-21.549 21.151v427.645c0 11.833 9.693 21.106 21.549 21.106h153.646c9.045 0 16.406-7.316 16.406-16.361s-7.361-16.384-16.406-16.384h-98.293v-21.311h98.293c9.045 0 16.406-7.703 16.406-16.76 0-9.068-7.361-16.759-16.406-16.759h-98.293v-21.333h98.293c9.045 0 16.406-7.339 16.406-16.362 0-9.079-7.361-16.384-16.406-16.384h-98.293v-22.061h98.293c9.045 0 16.406-7.316 16.406-16.361 0-9.068-7.361-16.384-16.406-16.384h-98.293v-22.073h98.293c9.045 0 16.406-7.328 16.406-16.361s-7.361-16.373-16.406-16.373h-98.293v-22.073h98.293c9.045 0 16.406-7.327 16.406-16.384 0-9.045-7.361-16.361-16.406-16.361h-98.293v-22.084h98.293c9.045 0 16.406-7.316 16.406-16.384 0-9.046-7.361-16.362-16.406-16.362h-98.293v-21.367h98.293zm-212.788 257.263c-13.039-12.243-30.094-18.66-47.968-18.045-2.64.068-5.314.33-7.942.716l-46.877-80.11 109.705-187.518c5.257-8.988 7.282-19.365 5.587-28.854-1.673-9.523-6.884-17.339-14.496-21.811l-8.453-4.961c-5.541-3.242-13.13-.568-16.976 5.985l-107.031 182.978-107.076-182.978c-3.834-6.553-11.423-9.239-16.953-5.985l-8.454 4.95c-7.623 4.471-12.834 12.299-14.518 21.811-1.684 9.489.342 19.877 5.598 28.865l109.705 187.518-46.888 80.11c-2.617-.386-5.291-.659-7.953-.716-17.863-.615-34.907 5.802-47.946 18.045-13.062 12.185-20.583 28.774-21.163 46.671-1.081 32.427 21.14 60.917 52.839 67.641 3.879.842 7.873 1.332 11.878 1.479 17.863.592 34.896-5.814 47.969-18.033 13.05-12.22 20.571-28.797 21.151-46.695.478-14.154-3.504-27.534-10.741-38.707l32.541-55.626 32.54 55.626c-7.247 11.173-11.23 24.553-10.752 38.707.603 17.875 8.101 34.452 21.163 46.695 13.05 12.219 30.105 18.625 47.957 18.033 4.017-.147 7.987-.637 11.879-1.479 31.709-6.758 53.908-35.225 52.838-67.641-.58-17.897-8.124-34.486-21.163-46.671zm-189.087 49.971c-.284 9.114-4.119 17.556-10.775 23.791-6.656 6.224-15.348 9.5-24.451 9.193-2.048-.068-4.084-.284-6.087-.717-16.122-3.458-27.431-17.965-26.897-34.474.307-9.137 4.142-17.579 10.786-23.814 6.656-6.224 15.338-9.489 24.451-9.193 2.048.079 4.096.307 6.076.728 16.145 3.47 27.455 17.954 26.897 34.486zm53.715-130.833c-10.184 0-18.467-8.283-18.467-18.466s8.295-18.455 18.467-18.455c10.194 0 18.477 8.272 18.477 18.455s-8.294 18.466-18.477 18.466zm96.802 163.078c-1.969.432-4.028.671-6.076.728-9.102.296-17.784-2.981-24.428-9.205-6.668-6.235-10.502-14.677-10.798-23.791-.546-16.532 10.764-31.038 26.897-34.486 1.992-.421 4.028-.671 6.088-.717 9.124-.307 17.794 2.959 24.45 9.182 6.656 6.235 10.479 14.678 10.775 23.814.558 16.509-10.763 31.004-26.908 34.475z"/></svg>

<svg xmlns="http://www.w3.org/2000/svg" viewBox="0 0 512 512"><path d="M502.921 112.276C511.966 112.276 519.327 104.585 519.327 95.516 519.327 86.471 511.966 78.757 502.921 78.757H404.628V57.458H502.921C511.966 57.458 519.327 50.13 519.327 41.085 519.327 32.04 511.966 24.713 502.921 24.713H349.275C337.419 24.713 327.726 34.02 327.726 45.864V473.509C327.726 485.342 337.419 494.615 349.275 494.615H502.921C511.966 494.615 519.327 487.299 519.327 478.254S511.966 461.87 502.921 461.87H404.628V440.559H502.921C511.966 440.559 519.327 432.856 519.327 423.799 519.327 414.731 511.966 407.04 502.921 407.04H404.628V385.707H502.921C511.966 385.707 519.327 378.368 519.327 369.345 519.327 360.266 511.966 352.961 502.921 352.961H404.628V330.9H502.921C511.966 330.9 519.327 323.584 519.327 314.539 519.327 305.471 511.966 298.155 502.921 298.155H404.628V276.082H502.921C511.966 276.082 519.327 268.754 519.327 259.721S511.966 243.348 502.921 243.348H404.628V221.275H502.921C511.966 221.275 519.327 213.948 519.327 204.891 519.327 195.846 511.966 188.53 502.921 188.53H404.628V166.446H502.921C511.966 166.446 519.327 159.13 519.327 150.062 519.327 141.016 511.966 133.7 502.921 133.7H404.628V112.333H502.921V112.276ZM290.133 369.539C277.094 357.296 260.039 350.879 242.165 351.494 239.525 351.562 236.851 351.824 234.223 352.21L187.346 272.1 297.051 84.582C302.308 75.594 304.333 65.217 302.638 55.728 300.965 46.205 295.754 38.389 288.142 33.917L279.689 28.956C274.148 25.714 266.559 28.388 262.713 34.941L155.682 217.919 48.606 34.941C44.772 28.388 37.183 25.702 31.653 28.956L23.199 33.906C15.576 38.377 10.365 46.205 8.681 55.717 6.997 65.206 9.023 75.594 14.279 84.582L123.984 272.1 77.096 352.21C74.479 351.824 71.805 351.551 69.143 351.494 51.28 350.879 34.236 357.296 21.197 369.539 8.135 381.724 0.614 398.313 0.034 416.21-1.047 448.637 21.174 477.127 52.873 483.851 56.752 484.693 60.746 485.183 64.751 485.33 82.614 485.922 99.647 479.516 112.72 467.297 125.77 455.077 133.291 438.5 133.871 420.602 134.349 406.448 130.367 393.068 123.13 381.895L155.671 326.269 188.211 381.895C180.964 393.068 176.981 406.448 177.459 420.602 178.062 438.477 185.56 455.054 198.622 467.297 211.672 479.516 228.727 485.922 246.579 485.33 250.596 485.183 254.566 484.693 258.458 483.851 290.167 477.093 312.366 448.626 311.296 416.21 310.716 398.313 303.172 381.724 290.133 369.539ZM101.046 419.51C100.762 428.624 96.927 437.066 90.271 443.301 83.615 449.525 74.923 452.801 65.82 452.494 63.772 452.426 61.736 452.21 59.733 451.777 43.611 448.319 32.302 433.812 32.836 417.303 33.143 408.166 36.978 399.724 43.622 393.489 50.278 387.265 58.96 384 68.073 384.296 70.121 384.375 72.169 384.603 74.149 385.024 90.294 388.494 101.604 402.978 101.046 419.51ZM154.761 288.677C144.577 288.677 136.294 280.394 136.294 270.211S144.589 251.756 154.761 251.756C164.955 251.756 173.238 260.028 173.238 270.211S164.944 288.677 154.761 288.677ZM251.563 451.755C249.594 452.187 247.535 452.426 245.487 452.483 236.385 452.779 227.703 449.502 221.059 443.278 214.391 437.043 210.557 428.601 210.261 419.487 209.715 402.955 221.025 388.449 237.158 385.001 239.15 384.58 241.186 384.33 243.246 384.284 252.37 383.977 261.04 387.243 267.696 393.466 274.352 399.701 278.175 408.144 278.471 417.28 279.029 433.789 267.708 448.284 251.563 451.755Z"/></svg>
